!!!Genre:	Freylekhs
!!!Mode:	Major (Mixolydian)
!!!Listening/dance:	dance
!!!:	*g:dor
!!!One_Mode:	no
**kern
*I"P1
*clefG2
*k[]
*G:
*M2/4
*>A
=1
8gL
16aL
16bJJ
16ccLL
16dd
16ee
16ffJJ
=2
8ggL
16ddL
16eeJJ
16ffLL
16ee
16dd
16ccJJ
=3
8bL
8ddJ
(16ddLL
16cc)
(16cc
16bJJ)
=4
(16bLL
16a)
(16a
16gJJ)
4b
=5:|!
(16bLL
16a)
(16a
16gJJ)
4g
=6!|:
*>B
8bL
8ddJ
(16ddLL
16cc)
(16cc
16bJJ)
=7
8eeL
(8qgg/
8ffJ)
(16ddLL
16cc)
(16cc
16bJJ)
=8
8bL
8ddJ
(16ddLL
16cc)
(16cc
16bJJ)
=9
(16bLL
16a)
(16a
16gJJ)
(8.btL
16gJk)
=10:|!
*k[]
*G:
=25!|:
*>D
*k[]
16bLL
16cc
16dd
16eeJJ
16ffLL
16ee
16dd
16ccJJ
=26
16bLL
16g
16b
16gJJ
16ffLL
16ee
16dd
16ccJJ
=27
16bLL
16cc
16dd
16eeJJ
16ffLL
16ee
16dd
16ccJJ
=28
16ddLL
16gg
16gg
16ggJJ
4g
=:|!
*-
